X:5
T:La Sansonette
R:schottische
M:4/4
L:1/8
K:Ddor
|: A2A2 G3F | EGFE D2A,2 | DEFG A2AB | c2B2 A4 |
A2A2 G3F | EGFE D2A,2 | DEFG A2 AG | F2E2 D4 ::
A2 GA _BAGA  |A2 GA _BAGA | E3 _B BAGA | E3 _B BAGA |
A2 GA _BAGA | A2 GA _BAGA | E3 _B BAGA | F2E2 D4 :|
